lib/svgs/users.svg

<?xml version="1.0" encoding="UTF-8" standalone="no"?>
<svg width="20px" height="20px" viewBox="0 0 20 20" version="1.1" xmlns="http://www.w3.org/2000/svg" xmlns:xlink="http://www.w3.org/1999/xlink">
    <defs></defs>
    <g id="Icons" stroke="none" stroke-width="1" fill="none" fill-rule="evenodd">
        <g id="Web" transform="translate(-289.000000, -2246.000000)" fill="#000000">
            <g id="user/users" transform="translate(289.000000, 2246.000000)">
                <path d="M14.2755007,17.9135 C13.9965007,17.9135 13.7465007,17.7175 13.6885007,17.4345 L13.2095007,15.1025 C13.1255007,14.9675 12.9975007,14.8635 12.8455007,14.8095 L9.87450073,13.7505 C9.35550073,13.5655 9.00550073,13.0705 9.00550073,12.5185 L9.00550073,12.0935 C9.00550073,11.5005 9.26750073,10.9435 9.72450073,10.5645 C10.1895007,10.1795 10.4565007,9.6185 10.4565007,9.0265 L10.4565007,7.7805 C10.4565007,6.6675 9.55050073,5.7625 8.43850073,5.7625 C7.32550073,5.7625 6.42050073,6.6675 6.42050073,7.7805 L6.42050073,9.0265 C6.42050073,9.6215 6.68850073,10.1835 7.15650073,10.5695 C7.61050073,10.9435 7.87150073,11.4965 7.87150073,12.0845 L7.87150073,12.5175 C7.87150073,13.0695 7.52250073,13.5645 7.00350073,13.7505 L4.03050073,14.8095 C3.87850073,14.8635 3.75150073,14.9675 3.66650073,15.1025 L3.18850073,17.4345 C3.12150073,17.7585 2.80550073,17.9655 2.47950073,17.9005 C2.15450073,17.8345 1.94550073,17.5175 2.01250073,17.1915 L2.50950073,14.7725 C2.52050073,14.7225 2.53750073,14.6735 2.56050073,14.6265 C2.78150073,14.1815 3.16150073,13.8455 3.62850073,13.6795 L6.59950073,12.6205 C6.64250073,12.6045 6.67150073,12.5635 6.67150073,12.5175 L6.67150073,12.0845 C6.67150073,11.8555 6.56950073,11.6415 6.39250073,11.4955 C5.64750073,10.8795 5.21950073,9.9805 5.21950073,9.0265 L5.21950073,7.7805 C5.21950073,6.0065 6.66350073,4.5625 8.43850073,4.5625 C10.2125007,4.5625 11.6565007,6.0065 11.6565007,7.7805 L11.6565007,9.0265 C11.6565007,9.9765 11.2315007,10.8745 10.4895007,11.4885 C10.3095007,11.6385 10.2055007,11.8595 10.2055007,12.0935 L10.2055007,12.5185 C10.2055007,12.5635 10.2335007,12.6045 10.2765007,12.6195 L13.2485007,13.6795 C13.7145007,13.8455 14.0945007,14.1825 14.3165007,14.6265 C14.3385007,14.6735 14.3565007,14.7225 14.3665007,14.7725 L14.8635007,17.1915 C14.9305007,17.5175 14.7215007,17.8345 14.3965007,17.9005 C14.3565007,17.9085 14.3155007,17.9135 14.2755007,17.9135 M17.3995007,16.351 C17.1205007,16.351 16.8705007,16.155 16.8125007,15.872 L16.3335007,13.541 C16.2495007,13.405 16.1215007,13.302 15.9685007,13.247 L12.9985007,12.188 C12.4795007,12.004 12.1295007,11.509 12.1295007,10.956 L12.1295007,10.532 C12.1295007,9.939 12.3915007,9.382 12.8475007,9.003 C13.3135007,8.618 13.5805007,8.057 13.5805007,7.464 L13.5805007,6.219 C13.5805007,5.106 12.6745007,4.201 11.5625007,4.201 C11.3315007,4.201 11.1055007,4.24 10.8895007,4.316 C10.5755007,4.428 10.2335007,4.265 10.1225007,3.953 C10.0115007,3.641 10.1735007,3.297 10.4855007,3.186 C10.8315007,3.063 11.1935007,3 11.5625007,3 C13.3365007,3 14.7805007,4.444 14.7805007,6.219 L14.7805007,7.464 C14.7805007,8.415 14.3555007,9.313 13.6135007,9.927 C13.4335007,10.077 13.3295007,10.297 13.3295007,10.532 L13.3295007,10.956 C13.3295007,11.002 13.3575007,11.042 13.4005007,11.058 L16.3725007,12.118 C16.8395007,12.284 17.2185007,12.621 17.4405007,13.064 C17.4625007,13.111 17.4805007,13.16 17.4905007,13.211 L17.9875007,15.629 C18.0545007,15.955 17.8455007,16.272 17.5205007,16.338 C17.4805007,16.346 17.4395007,16.351 17.3995007,16.351" id="Shape"></path>
            </g>
        </g>
    </g>
</svg>

<svg xmlns="http://www.w3.org/2000/svg" viewBox="0 0 20 20">
    <path fill="#000" fill-rule="evenodd" d="M14.276 17.913a.6.6 0 0 1-.587-.479l-.48-2.332a.708.708 0 0 0-.363-.293l-2.971-1.058a1.311 1.311 0 0 1-.87-1.232v-.425c0-.593.263-1.15.72-1.53.465-.384.732-.946.732-1.537V7.78a2.02 2.02 0 0 0-4.036 0v1.246c0 .595.268 1.157.736 1.543.454.373.715.926.715 1.514v.434c0 .551-.35 1.046-.868 1.232L4.03 14.81a.712.712 0 0 0-.364.292l-.478 2.332a.601.601 0 0 1-1.176-.242l.497-2.42a.65.65 0 0 1 .05-.146 1.896 1.896 0 0 1 1.069-.946l2.97-1.06a.11.11 0 0 0 .073-.102v-.434a.76.76 0 0 0-.28-.588 3.198 3.198 0 0 1-1.172-2.47V7.782a3.222 3.222 0 0 1 6.437 0v1.246c0 .95-.425 1.848-1.167 2.462a.787.787 0 0 0-.284.604v.425c0 .045.028.086.07.101l2.973 1.06c.466.166.846.503 1.068.947.022.048.04.097.05.147l.497 2.419a.599.599 0 0 1-.588.721m3.124-1.562a.6.6 0 0 1-.587-.479l-.48-2.331a.708.708 0 0 0-.364-.294l-2.97-1.059a1.31 1.31 0 0 1-.87-1.232v-.424c0-.593.263-1.15.719-1.529.466-.385.733-.946.733-1.539V6.219a2.02 2.02 0 0 0-2.691-1.903.599.599 0 1 1-.404-1.13 3.222 3.222 0 0 1 4.295 3.033v1.245c0 .951-.425 1.849-1.167 2.463a.785.785 0 0 0-.284.605v.424c0 .046.028.086.07.102l2.973 1.06c.467.166.846.503 1.068.946.022.047.04.096.05.147l.497 2.418a.599.599 0 0 1-.588.722"/>
</svg>
